src/images/advantages/cow.svg

<svg width="50" height="50" viewBox="0 0 50 50" fill="none" xmlns="http://www.w3.org/2000/svg">
<g clip-path="url(#clip0_11708_12395)">
<path d="M13.9394 7.2163C13.6462 7.46992 12.8072 9.21992 12.5059 10.1752C12.1475 11.3588 12.0253 12.2465 12.0742 13.4723C12.1394 15.2223 12.5792 16.5496 13.5484 17.9361C13.8009 18.2996 14.0045 18.6124 14.0045 18.6378C14.0045 18.6547 13.8498 18.6716 13.6543 18.6716C12.8154 18.6716 11.2434 18.9506 10.038 19.3141C8.12398 19.889 7 20.895 7 22.0194C7 22.4168 7.35837 23.0931 7.74118 23.4397C8.48235 24.1076 10.1032 24.7417 11.8462 25.046C12.4489 25.1559 14.2407 25.3419 14.6398 25.3504C14.7131 25.3504 14.7376 25.7392 14.7376 27.0158C14.7376 28.1148 14.7783 28.9687 14.8597 29.4929C15.1529 31.3697 16.0652 33.3564 17.2706 34.7598L17.686 35.2417L17.4091 35.6897C17.0018 36.3238 16.8471 36.8057 16.7982 37.5243C16.676 39.2489 17.7511 40.7791 19.8281 41.8528C23.7864 43.9071 29.9357 43.104 32.2407 40.2296C33.3647 38.8262 33.495 37.2199 32.6072 35.7658L32.3303 35.3177L32.8272 34.7175C33.7557 33.6016 34.3584 32.4856 34.8145 31.0738C35.1973 29.8733 35.3439 28.7151 35.3439 26.8805C35.3439 26.0436 35.3683 25.3504 35.4091 25.3504C35.7837 25.3419 37.5837 25.1475 38.1538 25.046C39.905 24.7417 41.4932 24.1161 42.2588 23.4397C42.6416 23.0931 43 22.4168 43 22.0194C43 20.7682 41.7294 19.7537 39.3674 19.145C38.5937 18.9421 37.1357 18.697 36.4272 18.6547L36.0932 18.6293L36.4597 18.1221C36.9158 17.5049 37.486 16.3045 37.7059 15.5182C38.3249 13.2441 37.9421 10.5979 36.6145 8.07016C36.0606 7.02185 35.6778 6.77668 35.2299 7.19093C35.0588 7.35156 34.9855 7.57137 34.8226 8.36605C34.3176 10.8938 33.381 12.8975 32.0127 14.3769L31.41 15.0363H24.9674H18.5249L17.9873 14.453C16.6516 12.982 15.6824 10.9023 15.1774 8.36605C15.0145 7.57137 14.9412 7.35156 14.7701 7.19093C14.5014 6.94576 14.2407 6.95422 13.9394 7.2163ZM14.9819 12.2296C15.4136 13.1764 15.9511 14.0641 16.5864 14.8842L17.0914 15.5351L16.562 15.9325C16.0652 16.3129 15.6009 16.854 15.2425 17.4711L15.0878 17.7501L14.6968 17.2175C13.3611 15.3745 13.0271 13.1173 13.7357 10.7755C14.0778 9.64263 14.0697 9.65108 14.3792 10.6318C14.5258 11.1052 14.8027 11.8238 14.9819 12.2296ZM36.1828 10.4458C36.5167 11.4518 36.6471 12.2549 36.6471 13.2948C36.6471 14.8334 36.2398 16.1354 35.3846 17.302L35.0018 17.8262L34.7167 17.3443C34.3828 16.7525 33.8127 16.1354 33.2914 15.7803C33.0715 15.6366 32.9005 15.4929 32.9005 15.476C32.9005 15.4506 33.0552 15.2562 33.2507 15.0448C34.1548 14.0388 35.124 12.2296 35.6045 10.674C35.7511 10.1921 35.8977 9.7948 35.9222 9.7948C35.9466 9.7948 36.0688 10.0907 36.1828 10.4458ZM32.0208 16.6257C32.9249 17.0062 33.7882 18.0967 33.9267 19.0182C34 19.5255 34.171 19.8467 34.391 19.8975C34.4887 19.9144 35.1647 19.9735 35.8896 20.0243C38.4634 20.1933 40.4914 20.7429 41.3548 21.4953C41.7538 21.8504 41.7131 22.1462 41.2326 22.5098C40.2715 23.2368 38.1946 23.7863 36.0769 23.8793C34.676 23.9385 34.3828 23.9808 34.1955 24.1752C34.057 24.319 34.0407 24.4711 34.0407 26.0013C34.0407 28.0726 33.9348 29.2646 33.6742 30.2284C33.3077 31.5388 32.5828 32.9337 31.7357 33.9228L31.3855 34.3286L30.6606 33.8974C29.781 33.3733 28.9584 33.0351 27.9729 32.8069C24.886 32.0714 21.4733 32.5194 19.1765 33.9651L18.6471 34.3032L18.3131 33.9059C17.857 33.3733 17.1403 32.232 16.8552 31.5895C16.2281 30.1354 16.0407 28.9518 16.0407 26.3479C16.0407 23.8202 16.171 24.0061 14.2977 23.9047C11.9032 23.7779 10.0787 23.3467 8.93032 22.6197C8.08326 22.0786 8.22172 21.5967 9.40272 21.0303C10.5348 20.4808 12.0905 20.1511 14.2489 20.0158C15.9267 19.9059 15.9674 19.8805 16.1222 19.069C16.3502 17.8431 17.2543 16.8286 18.3946 16.5074C18.6796 16.4228 20.276 16.4059 25.1629 16.4144L31.5566 16.4313L32.0208 16.6257ZM27.4434 34.1257C29.4389 34.616 30.9294 35.5291 31.5729 36.6619C31.7276 36.924 31.7928 37.1945 31.8253 37.6088C31.8579 38.1245 31.8335 38.2513 31.638 38.674C30.7339 40.5931 27.4109 41.8612 24.0308 41.5738C19.9665 41.2356 17.295 38.9699 18.3457 36.7465C18.9158 35.546 20.8462 34.3962 22.8824 34.0581C23.2163 34.0074 23.5502 33.9482 23.6154 33.9313C23.6805 33.9144 24.4136 33.9144 25.2443 33.9313C26.3765 33.9566 26.9222 34.0074 27.4434 34.1257Z" fill="#131313"/>
<path d="M19.364 20.8613C18.859 21.0304 18.5169 21.2502 18.0608 21.7067C17.6617 22.0871 17.6291 22.5352 17.9631 22.8057C18.2726 23.0593 18.5658 23.0255 18.9404 22.6958C19.4128 22.2816 19.7793 22.1125 20.2355 22.1125C20.6916 22.104 21.0418 22.2647 21.5305 22.6958C21.9051 23.0255 22.1983 23.0593 22.5078 22.8057C22.6707 22.6705 22.7196 22.5606 22.7196 22.3069C22.7196 22.0449 22.6626 21.9265 22.3775 21.6391C21.5712 20.8275 20.3739 20.5147 19.364 20.8613Z" fill="#131313"/>
<path d="M28.8606 20.8525C28.3393 21.047 27.6714 21.4866 27.4026 21.8163C27.142 22.1376 27.1339 22.5011 27.4026 22.7716C27.6714 23.0591 27.9972 23.0422 28.3882 22.7209C29.3492 21.9262 30.066 21.9009 30.9538 22.6364C31.1818 22.8308 31.4425 22.983 31.5239 22.983C31.923 22.983 32.2488 22.6279 32.2488 22.2052C32.2488 21.9347 31.5728 21.3091 30.9619 21.0132C30.2859 20.6835 29.4796 20.6243 28.8606 20.8525Z" fill="#131313"/>
<path d="M20.5448 36.5016C20.3086 36.7298 20.2272 37.0595 20.3493 37.3216C20.4389 37.533 20.5774 37.6175 21.1394 37.7697C21.3919 37.8373 21.4978 37.9218 21.5874 38.1332C21.7014 38.4122 21.7095 38.4122 22.3367 38.4375L22.9638 38.4629V38.2262C22.9557 37.888 22.7683 37.3977 22.524 37.0595C22.2389 36.6706 21.7421 36.417 21.1801 36.3663C20.7973 36.3325 20.6996 36.3494 20.5448 36.5016Z" fill="#131313"/>
<path d="M28.3233 36.4419C27.916 36.5518 27.3296 37.1013 27.1667 37.5325C27.0934 37.7269 27.0201 38.0735 27.012 38.3018C26.9957 38.6653 27.0282 38.7499 27.2237 38.9274C27.7043 39.3501 28.3396 39.0204 28.3396 38.3441C28.3396 38.0143 28.5839 37.7861 29.0156 37.7015C29.4717 37.617 29.6346 37.431 29.6427 36.9999C29.6427 36.4334 29.1377 36.2136 28.3233 36.4419Z" fill="#131313"/>
</g>
<defs>
<clipPath id="clip0_11708_12395">
<rect width="36" height="36" fill="white" transform="translate(7 7)"/>
</clipPath>
</defs>
</svg>

<svg width="50" height="50" fill="none"><g clip-path="url(#a)" fill="#131313"><path d="M13.94 7.216c-.294.254-1.133 2.004-1.434 2.96-.358 1.183-.48 2.07-.432 3.296.065 1.75.505 3.078 1.474 4.464.253.364.457.676.457.702 0 .017-.155.034-.35.034-.84 0-2.412.279-3.617.642C8.124 19.89 7 20.895 7 22.02c0 .398.358 1.074.741 1.42.741.669 2.362 1.303 4.105 1.607.603.11 2.395.296 2.794.304.073 0 .098.39.098 1.666 0 1.099.04 1.953.122 2.477.293 1.877 1.205 3.863 2.41 5.267l.416.482-.277.448c-.407.634-.562 1.116-.61 1.834-.123 1.725.952 3.255 3.03 4.329 3.957 2.054 10.107 1.251 12.412-1.623 1.124-1.404 1.254-3.01.366-4.464l-.277-.448.497-.6c.929-1.116 1.531-2.232 1.988-3.644.382-1.2.529-2.359.529-4.194 0-.836.024-1.53.065-1.53.375-.008 2.175-.203 2.745-.304 1.751-.304 3.34-.93 4.105-1.606.383-.347.741-1.023.741-1.42 0-1.252-1.27-2.266-3.633-2.875-.773-.203-2.231-.448-2.94-.49l-.334-.026.367-.507c.456-.617 1.026-1.817 1.246-2.604.619-2.274.236-4.92-1.092-7.448-.553-1.048-.936-1.293-1.384-.88-.171.162-.244.381-.407 1.176-.505 2.528-1.442 4.532-2.81 6.01l-.603.66H18.525l-.538-.583c-1.335-1.471-2.305-3.55-2.81-6.087-.162-.795-.236-1.014-.407-1.175-.269-.245-.53-.237-.83.025Zm1.042 5.014c.432.946.97 1.834 1.604 2.654l.505.651-.529.397c-.497.38-.961.922-1.32 1.54l-.154.278-.391-.532c-1.336-1.844-1.67-4.1-.961-6.443.342-1.132.334-1.124.643-.143.147.473.424 1.192.603 1.598Zm21.2-1.784a8.353 8.353 0 0 1 .465 2.849c0 1.538-.407 2.84-1.262 4.007l-.383.524-.285-.482a5.064 5.064 0 0 0-1.426-1.564c-.22-.143-.39-.287-.39-.304 0-.025.154-.22.35-.431.904-1.006 1.873-2.815 2.354-4.371.146-.482.293-.88.317-.88.025 0 .147.297.26.652Zm-4.161 6.18c.904.38 1.767 1.47 1.906 2.392.073.508.244.829.464.88.098.016.774.076 1.499.126 2.573.17 4.601.719 5.465 1.471.399.355.358.651-.122 1.015-.961.727-3.038 1.276-5.156 1.37-1.401.059-1.694.1-1.881.295-.139.144-.155.296-.155 1.826 0 2.072-.106 3.264-.367 4.227-.366 1.31-1.091 2.706-1.938 3.695l-.35.406-.725-.432a8.99 8.99 0 0 0-2.688-1.09c-3.087-.736-6.5-.288-8.796 1.158l-.53.338-.334-.397c-.456-.533-1.173-1.674-1.458-2.316-.627-1.455-.814-2.638-.814-5.242 0-2.528.13-2.342-1.743-2.443-2.395-.127-4.22-.558-5.368-1.285-.847-.541-.708-1.023.473-1.59 1.132-.55 2.688-.879 4.846-1.014 1.678-.11 1.718-.135 1.873-.947.228-1.226 1.132-2.24 2.273-2.562.285-.084 1.881-.101 6.768-.093l6.394.017.464.195Zm-4.578 17.5c1.996.49 3.486 1.403 4.13 2.536.155.262.22.532.252.947.033.515.009.642-.187 1.065-.904 1.92-4.227 3.187-7.607 2.9-4.064-.338-6.736-2.604-5.685-4.828.57-1.2 2.5-2.35 4.536-2.688.334-.05.668-.11.733-.127.066-.017.799-.017 1.63 0 1.131.026 1.677.076 2.198.195Z"/><path d="M19.364 20.861c-.505.17-.847.39-1.303.846-.4.38-.432.828-.098 1.099.31.253.603.22.977-.11.473-.414.84-.584 1.295-.584.457-.008.807.153 1.296.584.374.33.667.363.977.11.163-.136.212-.245.212-.5 0-.261-.057-.38-.342-.667-.807-.811-2.004-1.124-3.014-.778ZM28.86 20.852c-.52.195-1.189.635-1.457.964-.261.322-.27.685 0 .956.268.287.594.27.985-.051.961-.795 1.678-.82 2.566-.085.228.195.488.347.57.347.399 0 .725-.355.725-.778 0-.27-.676-.896-1.287-1.192-.676-.33-1.482-.389-2.101-.16ZM20.545 36.502c-.236.228-.318.557-.196.82.09.211.228.295.79.448.253.067.359.152.448.363.114.28.122.28.75.304l.627.026v-.237c-.008-.338-.196-.828-.44-1.166-.285-.39-.782-.643-1.344-.694-.383-.033-.48-.017-.635.136ZM28.323 36.442c-.407.11-.993.66-1.156 1.09a2.92 2.92 0 0 0-.155.77c-.016.363.016.448.212.625.48.423 1.116.093 1.116-.583 0-.33.244-.558.676-.642.456-.085.619-.271.627-.702 0-.567-.505-.786-1.32-.558Z"/></g><defs><clipPath id="a"><path fill="#fff" d="M7 7h36v36H7z"/></clipPath></defs></svg>
